wp-content/themes/Blitz-Script/assets/img/icons/vk2.svg

<svg width="24" height="15" viewBox="0 0 24 15" fill="none" xmlns="http://www.w3.org/2000/svg">
<path d="M11.754 14.1307H13.1324C13.1324 14.1307 13.5409 14.0793 13.7961 13.8734C14.0004 13.6676 14.0004 13.2559 14.0004 13.2559C14.0004 13.2559 13.9493 11.3518 14.8683 11.0945C15.7362 10.8372 16.8084 12.9471 17.9826 13.719C18.8505 14.3366 19.5142 14.1822 19.5142 14.1822L22.6286 14.1307C22.6286 14.1307 24.2623 14.0278 23.4965 12.7413C23.4454 12.6383 23.037 11.7635 21.148 10.0138C19.2079 8.16122 19.4632 8.46999 21.8117 5.27939C23.2412 3.32386 23.8028 2.14026 23.6496 1.6771C23.4965 1.21395 22.4243 1.31688 22.4243 1.31688H18.9016C18.9016 1.31688 18.6463 1.26541 18.4421 1.4198C18.2889 1.52272 18.1868 1.78003 18.1868 1.78003C18.1868 1.78003 17.6252 3.2724 16.9105 4.55893C15.3278 7.23492 14.7151 7.3893 14.4599 7.23492C13.8472 6.82323 14.0004 5.69108 14.0004 4.81624C14.0004 2.19172 14.4088 1.11103 13.2345 0.853725C12.8261 0.750802 12.5708 0.699341 11.6008 0.699341C10.3245 0.699341 9.30336 0.699341 8.69071 1.00811C8.28228 1.21395 7.97595 1.62564 8.18017 1.6771C8.43544 1.72857 8.94598 1.83149 9.20126 2.19172C9.55864 2.70633 9.50758 3.78702 9.50758 3.78702C9.50758 3.78702 9.7118 6.82323 9.04809 7.23492C8.5886 7.49222 7.9249 6.97761 6.54643 4.50747C5.78062 3.2724 5.27007 1.93441 5.27007 1.93441C5.27007 1.93441 5.16796 1.6771 4.96375 1.52272C4.75953 1.36834 4.40215 1.31688 4.40215 1.31688H1.03256C1.03256 1.31688 0.522017 1.31688 0.368854 1.57418C0.215691 1.78003 0.368854 2.19172 0.368854 2.19172C0.368854 2.19172 2.97263 8.36707 5.93378 11.5062C8.69071 14.2851 11.754 14.1307 11.754 14.1307Z" fill="#2A8CFF"/>
</svg>

<svg width="24" height="15" fill="none" xmlns="http://www.w3.org/2000/svg"><path d="M11.754 14.13h1.378s.409-.05.664-.257c.204-.205.204-.617.204-.617s-.05-1.904.868-2.162c.868-.257 1.94 1.853 3.115 2.625.867.618 1.531.463 1.531.463l3.115-.051s1.633-.103.867-1.39c-.05-.103-.459-.977-2.348-2.727-1.94-1.853-1.685-1.544.664-4.735 1.43-1.955 1.99-3.139 1.838-3.602-.153-.463-1.226-.36-1.226-.36h-3.522s-.256-.052-.46.103c-.153.103-.255.36-.255.36s-.562 1.492-1.277 2.779c-1.582 2.676-2.195 2.83-2.45 2.676-.613-.412-.46-1.544-.46-2.419 0-2.624.409-3.705-.765-3.962C12.825.75 12.57.699 11.6.699c-1.277 0-2.298 0-2.91.31-.409.205-.715.617-.51.668.254.052.765.154 1.02.515.358.514.307 1.595.307 1.595s.204 3.036-.46 3.448c-.46.257-1.123-.257-2.502-2.728C5.781 3.272 5.27 1.934 5.27 1.934s-.102-.257-.306-.411c-.204-.155-.562-.206-.562-.206h-3.37s-.51 0-.663.257c-.153.206 0 .618 0 .618s2.604 6.175 5.565 9.314c2.757 2.78 5.82 2.625 5.82 2.625z" fill="#2A8CFF"/></svg>
